X:445
%%etbk:tnset id:134,pos:2,rep:3x,ant:
%%etbk:wsite http://www.thesession.org/tunes/display/638
%%etbk:skill ?
T: Lord Mayo
Z: Piano Box Version by Martin Fleischmann
H: Created 2013-02-19 /  Last Modified 2013-02-19
M: 2/4
L: 1/8
R: march
K: Ador
|: "am"!1!A!2!G !1!A!2!B/!4!d/ | !2!e>!4!g !2!e/!1!d/!2!B/d/ | !5!e!1!A AB/!1!A/ | "em"!3!G/A/G/F/ !1!E>E |
"am"!3!A!2!G !1!A!2!B/!4!d/ | "C"!2!e>f g>f | "G"!2!e>!4!g !2!e/!1!d/!2!B/!1!G/ | "D"!1!A4:||
|: "am"!3!a>{b}a !2!g/!1!e/g/a/ | "em"!4!b !5!b- ba/!3!g/ | "C"!2!e!1!d d/e/!3!g | "G"!1!G>A G2 |
|1 "am"!3!a>{b}a g/e/g/a/ | "em"!4!b !5!b- ba/!3!g/ | "C"!2!e!1!d d/e/!3!g | "D"!4!a4:|
|2 "am"{c}!2!A/G/A/!3!B/ !4!dd/B/ | !2!A/{c}A/!1!G "C"!4!g>g | "G"!2!e>!4!g !2!e/!1!d/!2!B/!1!G/ | "D"!1!A4||
